X: 17967
T: Hug The Bundle
R: strathspey
M: 4/4
K: Edorian
E2 EB BA B/c/d|D2 DA AG F/E/D|E2 EB BA B/c/d|e/f/g fg edBA|
EFGA BA B/c/d|D2 DA AG F/E/D|E2 GA BA B/c/d|e/f/g fd e2 e2||
efga beeg|~f2 df ~f2 df|efga beeg|~f2 df e3 d|
efga beeg|~f2 df af d2|afge fedf|ed B/c/d edBA||

